X:46
T:Quick Step.#55. JBs.046
S:Jas.Blackshaw MS, 1837, N.Shropshire
Z:Tony Weatherall 2006
M:2/4
L:1/8
Q:1/4=100
A:North Shropshire
R:Country Dance
K:F
c|fc af|g/f/g/a/ b2|gcâ€™ef|g/f/e/d/ cc|fc af|g/f/g/a/ b2|gcâ€™fe|f2z:|!
|:a/b/|câ€™câ€™af bbge|aafd|g/a/g/f/ ec|f/e/f/g/ aa|g/f/g/a/ b2|acâ€™fe|f3:|!
|:z|c>d cB|AB c2|db/a/ gf|e/f/e/d/ c2|c>d cB|AB c2|db a/g/f/e/|f3:|

